assets/Bullseye/Flat/bullseye_flat.svg

<svg width="32" height="32" viewBox="0 0 32 32" fill="none" xmlns="http://www.w3.org/2000/svg">
<path d="M14 28.2921C19.6841 28.2921 24.292 23.6842 24.292 18C24.292 12.3159 19.6841 7.70801 14 7.70801C8.31585 7.70801 3.70795 12.3159 3.70795 18C3.70795 23.6842 8.31585 28.2921 14 28.2921Z" fill="#F4F4F4"/>
<path d="M26 18C26 11.3726 20.6274 6 14 6C7.37258 6 2 11.3726 2 18C2 24.6274 7.37258 30 14 30C20.6274 30 26 24.6274 26 18ZM23 18C23 22.9705 18.9706 27 14 27C9.02944 27 5 22.9705 5 18C5 13.0294 9.02944 9 14 9C18.9706 9 23 13.0294 23 18ZM14 24C10.6863 24 8 21.3137 8 18C8 14.6863 10.6863 12 14 12C17.3137 12 20 14.6863 20 18C20 21.3137 17.3137 24 14 24ZM17 18C17 16.3432 15.6569 15 14 15C12.3431 15 11 16.3432 11 18C11 19.6568 12.3431 21 14 21C15.6569 21 17 19.6568 17 18Z" fill="#F8312F"/>
<path d="M14.2505 17.742C14.595 18.086 15.1379 18.086 15.4824 17.742L19.7416 13.4883C20.0861 13.1442 20.0861 12.6021 19.7416 12.258C19.3971 11.914 18.8543 11.914 18.5098 12.258L14.2505 16.5117C13.9165 16.8558 13.9165 17.3979 14.2505 17.742Z" fill="#9B9B9B"/>
<path d="M19.6577 10.093L19.2077 8.50301C18.6677 6.60301 19.1977 4.55298 20.5977 3.16298L21.4877 2.273C21.9777 1.773 22.8177 1.99298 23.0077 2.66298L24 6L19.6577 10.093ZM22 12.3299L23.5717 12.7884C25.4499 13.3385 27.4763 12.7986 28.8504 11.3722L29.7301 10.4655C30.2244 9.96628 30.0069 9.11049 29.3446 8.91692L26 8L22 12.3299Z" fill="#46A4FB"/>
<path d="M15.8499 16.1517C17.0736 17.3745 19.0777 17.2589 20.1569 15.9111L25.5815 9.1139C26.1886 8.35332 26.1307 7.25576 25.437 6.56257C24.7433 5.86938 23.6448 5.81159 22.8836 6.41813L16.0811 11.8385C14.7418 12.9265 14.6262 14.929 15.8499 16.1517Z" fill="#50E2FF"/>
<path d="M21.258 10.742C21.6021 11.086 22.1442 11.086 22.4883 10.742L26.742 6.48829C27.086 6.14424 27.086 5.60208 26.742 5.25804C26.3979 4.91399 25.8558 4.91399 25.5117 5.25804L21.258 9.51174C20.914 9.85579 20.914 10.4083 21.258 10.742Z" fill="#46A4FB"/>
</svg>

<svg xmlns="http://www.w3.org/2000/svg" width="32" height="32" fill="none"><path fill="#F4F4F4" d="M14 28.292c5.684 0 10.292-4.608 10.292-10.292S19.684 7.708 14 7.708 3.708 12.316 3.708 18 8.316 28.292 14 28.292Z"/><path fill="#F8312F" d="M26 18c0-6.627-5.373-12-12-12S2 11.373 2 18s5.373 12 12 12 12-5.373 12-12Zm-3 0a9 9 0 1 1-18 0 9 9 0 0 1 18 0Zm-9 6a6 6 0 1 1 0-12 6 6 0 0 1 0 12Zm3-6a3 3 0 1 0-6 0 3 3 0 0 0 6 0Z"/><path fill="#9B9B9B" d="M14.25 17.742a.864.864 0 0 0 1.232 0l4.26-4.254a.861.861 0 0 0 0-1.23.864.864 0 0 0-1.232 0l-4.26 4.254a.88.88 0 0 0 0 1.23Z"/><path fill="#46A4FB" d="m19.658 10.093-.45-1.59c-.54-1.9-.01-3.95 1.39-5.34l.89-.89a.906.906 0 0 1 1.52.39L24 6l-4.342 4.093ZM22 12.33l1.572.458c1.878.55 3.904.01 5.278-1.416l.88-.906c.494-.5.277-1.356-.385-1.55L26 8l-4 4.33Z"/><path fill="#50E2FF" d="M15.85 16.152a2.892 2.892 0 0 0 4.307-.24l5.424-6.798a1.92 1.92 0 0 0-2.698-2.696l-6.802 5.42a2.904 2.904 0 0 0-.231 4.314Z"/><path fill="#46A4FB" d="M21.258 10.742a.862.862 0 0 0 1.23 0l4.254-4.254a.862.862 0 0 0 0-1.23.862.862 0 0 0-1.23 0l-4.254 4.254a.862.862 0 0 0 0 1.23Z"/></svg>
